germany/municipalities/07141136.svg

<?xml version="1.0" encoding="UTF-8" standalone="no"?>
<!-- Created with Inkscape (http://www.inkscape.org/) -->

<svg
   xmlns:dc="http://purl.org/dc/elements/1.1/"
   xmlns:cc="http://creativecommons.org/ns#"
   xmlns:rdf="http://www.w3.org/1999/02/22-rdf-syntax-ns#"
   xmlns:svg="http://www.w3.org/2000/svg"
   xmlns="http://www.w3.org/2000/svg"
   xmlns:sodipodi="http://sodipodi.sourceforge.net/DTD/sodipodi-0.dtd"
   xmlns:inkscape="http://www.inkscape.org/namespaces/inkscape"
   width="153.64667mm"
   height="157.61925mm"
   viewBox="0 0 153.64667 157.61924"
   version="1.1"
   id="svg865"
   inkscape:version="0.92.5 (2060ec1f9f, 2020-04-08)"
   sodipodi:docname="DEU Weisel COA.svg">
  <defs
     id="defs859">
    <inkscape:path-effect
       effect="spiro"
       id="path-effect2270"
       is_visible="true" />
    <inkscape:path-effect
       effect="spiro"
       id="path-effect2266"
       is_visible="true" />
    <inkscape:path-effect
       effect="spiro"
       id="path-effect2262"
       is_visible="true" />
    <inkscape:path-effect
       effect="spiro"
       id="path-effect2258"
       is_visible="true" />
    <inkscape:path-effect
       effect="spiro"
       id="path-effect2254"
       is_visible="true" />
    <inkscape:path-effect
       effect="spiro"
       id="path-effect2250"
       is_visible="true" />
    <inkscape:path-effect
       effect="spiro"
       id="path-effect2219"
       is_visible="true" />
    <inkscape:path-effect
       effect="spiro"
       id="path-effect2215"
       is_visible="true" />
    <inkscape:path-effect
       effect="spiro"
       id="path-effect2210"
       is_visible="true" />
    <inkscape:path-effect
       effect="spiro"
       id="path-effect2206"
       is_visible="true" />
    <inkscape:path-effect
       effect="spiro"
       id="path-effect2049"
       is_visible="true" />
    <inkscape:path-effect
       effect="spiro"
       id="path-effect2045"
       is_visible="true" />
    <inkscape:path-effect
       effect="spiro"
       id="path-effect2041"
       is_visible="true" />
    <inkscape:path-effect
       effect="spiro"
       id="path-effect3644"
       is_visible="true" />
    <inkscape:path-effect
       effect="spiro"
       id="path-effect3636"
       is_visible="true" />
    <inkscape:path-effect
       effect="spiro"
       id="path-effect3544"
       is_visible="true" />
    <inkscape:path-effect
       effect="spiro"
       id="path-effect3466"
       is_visible="true" />
    <inkscape:path-effect
       effect="spiro"
       id="path-effect3544-2"
       is_visible="true" />
    <inkscape:path-effect
       effect="spiro"
       id="path-effect3644-8"
       is_visible="true" />
    <inkscape:path-effect
       effect="spiro"
       id="path-effect3644-3"
       is_visible="true" />
    <inkscape:path-effect
       effect="spiro"
       id="path-effect3636-0"
       is_visible="true" />
    <inkscape:path-effect
       effect="spiro"
       id="path-effect1727-0-1"
       is_visible="true" />
    <inkscape:path-effect
       effect="spiro"
       id="path-effect1731-8-3"
       is_visible="true" />
    <inkscape:path-effect
       effect="spiro"
       id="path-effect1727-3"
       is_visible="true" />
    <inkscape:path-effect
       effect="spiro"
       id="path-effect1731-7"
       is_visible="true" />
    <inkscape:path-effect
       effect="spiro"
       id="path-effect841-8"
       is_visible="true" />
    <inkscape:path-effect
       effect="spiro"
       id="path-effect2041-4"
       is_visible="true" />
  </defs>
  <sodipodi:namedview
     id="base"
     pagecolor="#ffffff"
     bordercolor="#666666"
     borderopacity="1.0"
     inkscape:pageopacity="0.0"
     inkscape:pageshadow="2"
     inkscape:zoom="1.3311482"
     inkscape:cx="290.35592"
     inkscape:cy="297.86313"
     inkscape:document-units="mm"
     inkscape:current-layer="layer1"
     showgrid="false"
     inkscape:window-width="1920"
     inkscape:window-height="1046"
     inkscape:window-x="-11"
     inkscape:window-y="-11"
     inkscape:window-maximized="1"
     fit-margin-top="0"
     fit-margin-left="0"
     fit-margin-right="0"
     fit-margin-bottom="0"
     inkscape:snap-global="true"
     inkscape:snap-midpoints="true"
     inkscape:snap-smooth-nodes="true" />
  <metadata
     id="metadata862">
    <rdf:RDF>
      <cc:Work
         rdf:about="">
        <dc:format>image/svg+xml</dc:format>
        <dc:type
           rdf:resource="http://purl.org/dc/dcmitype/StillImage" />
        <dc:title></dc:title>
      </cc:Work>
    </rdf:RDF>
  </metadata>
  <g
     inkscape:label="Ebene 1"
     inkscape:groupmode="layer"
     id="layer1"
     transform="translate(-14.022293,165.81372)">
    <path
       d="m 14.683748,-165.15226 4.95713,97.015604 c 1.15959,30.331794 33.60953,59.2606747 71.204509,59.2807328 37.570883,-0.032599 70.029743,-28.9690208 71.204503,-59.2807328 l 4.95762,-97.015604 H 90.846114 Z"
       id="path1193-3-5-6-0"
       inkscape:connector-curvature="0"
       style="fill:#0098df;fill-opacity:1;fill-rule:evenodd;stroke:none;stroke-width:1.32291663;stroke-linecap:round;stroke-linejoin:round;stroke-miterlimit:4;stroke-dasharray:none;stroke-opacity:1"
       sodipodi:nodetypes="ccccccc" />
    <path
       style="opacity:1;fill:#ffffff;fill-opacity:1;fill-rule:evenodd;stroke:#000000;stroke-width:5;stroke-linecap:round;stroke-linejoin:round;stroke-miterlimit:4;stroke-dasharray:none;stroke-opacity:1;paint-order:fill markers stroke"
       d="M 2.5 2.5 L 5.4667969 60.550781 L 233.05664 288.13867 L 53.910156 467.28516 C 68.188194 489.42588 86.632874 509.8663 108.23633 527.56055 L 290.35742 345.43945 L 472.42383 527.50781 C 494.02555 509.81285 512.47404 489.37404 526.75781 467.24023 L 347.65625 288.13867 L 575.24414 60.552734 L 578.21094 2.5 L 518.69531 2.5 L 290.35742 230.83984 L 62.017578 2.5 L 2.5 2.5 z "
       transform="matrix(0.26458333,0,0,0.26458333,14.022293,-165.81372)"
       id="rect3698" />
    <path
       style="fill:none;stroke:#000000;stroke-width:0.79374999;stroke-linecap:butt;stroke-linejoin:miter;stroke-miterlimit:4;stroke-dasharray:none;stroke-opacity:1"
       d="M 34.647777,-33.378806 166.52228,-165.25331"
       id="path3716"
       inkscape:connector-curvature="0" />
    <path
       style="fill:none;stroke:#000000;stroke-width:0.79374993;stroke-linecap:butt;stroke-linejoin:miter;stroke-miterlimit:4;stroke-dasharray:none;stroke-opacity:1"
       d="M 15.601979,-164.8203 146.64594,-33.776327"
       id="path3716-8"
       inkscape:connector-curvature="0" />
    <path
       d="m 14.683748,-165.15226 4.95713,97.015607 c 1.15959,30.331791 33.60953,59.260671 71.204509,59.280729 37.570883,-0.032599 70.029743,-28.96902 71.204503,-59.280729 l 4.95762,-97.015607 H 90.846114 Z"
       id="path1193-3-5-6"
       inkscape:connector-curvature="0"
       style="fill:none;fill-rule:evenodd;stroke:#000000;stroke-width:1.32291663;stroke-linecap:round;stroke-linejoin:round;stroke-miterlimit:4;stroke-dasharray:none;stroke-opacity:1"
       sodipodi:nodetypes="ccccccc" />
  </g>
</svg>

<svg xmlns="http://www.w3.org/2000/svg" width="580.712" height="595.726" viewBox="0 0 153.647 157.619"><path d="m14.684-165.152 4.957 97.015C20.8-37.805 53.25-8.876 90.845-8.856c37.571-.033 70.03-28.969 71.205-59.28l4.958-97.016H90.846z" style="fill:#0098df;fill-opacity:1;fill-rule:evenodd;stroke:none;stroke-width:1.32291663;stroke-linecap:round;stroke-linejoin:round;stroke-miterlimit:4;stroke-dasharray:none;stroke-opacity:1" transform="translate(-14.022 165.814)"/><path style="opacity:1;fill:#fff;fill-opacity:1;fill-rule:evenodd;stroke:#000;stroke-width:5;stroke-linecap:round;stroke-linejoin:round;stroke-miterlimit:4;stroke-dasharray:none;stroke-opacity:1;paint-order:fill markers stroke" d="m2.5 2.5 2.967 58.05 227.59 227.589L53.91 467.285c14.278 22.14 32.723 42.581 54.326 60.276l182.121-182.122 182.067 182.069c21.602-17.695 40.05-38.134 54.334-60.268L347.656 288.14 575.244 60.553 578.211 2.5h-59.516L290.357 230.84 62.017 2.5H2.5z" transform="scale(.26458)"/><path style="fill:none;stroke:#000;stroke-width:.79374999;stroke-linecap:butt;stroke-linejoin:miter;stroke-miterlimit:4;stroke-dasharray:none;stroke-opacity:1" d="m34.648-33.379 131.874-131.874" transform="translate(-14.022 165.814)"/><path style="fill:none;stroke:#000;stroke-width:.79374993;stroke-linecap:butt;stroke-linejoin:miter;stroke-miterlimit:4;stroke-dasharray:none;stroke-opacity:1" d="M15.602-164.82 146.646-33.776" transform="translate(-14.022 165.814)"/><path d="m14.684-165.152 4.957 97.015C20.8-37.805 53.25-8.876 90.845-8.856c37.571-.033 70.03-28.969 71.205-59.28l4.958-97.016H90.846z" style="fill:none;fill-rule:evenodd;stroke:#000;stroke-width:1.32291663;stroke-linecap:round;stroke-linejoin:round;stroke-miterlimit:4;stroke-dasharray:none;stroke-opacity:1" transform="translate(-14.022 165.814)"/></svg>
